X:998
T:Baila los titos, morena
M:2/4
L:1/4
Q:1/8=176
S:Trad
O:Spain
A: San Román de los Caballeros, KINGDOM OF LEON
R:Titos
K:G
|:d d/2e/2|d c/2B/2|c A:|
d d/2e/2|B B/2A/2|GG|A A/2c/2|
B B/2A/2|GG-|G2-|Gz|]
:d d/2e/2|d c/2B/2|cA:|
c c/2d/2|B B/2A/2|GG|A A/2c/2|
B B/2A/2|GG-|G3/2z/2|
|:d d/2e/2|d c/2B/2|c A:|
d d/2e/2|B B/2A/2|GG|A A/2c/2|
B B/2A/2|GG-|G2-|Gz|]


